src/assets/duotone/DollarSquare.svg

<svg width="24" height="24" viewBox="0 0 24 24"  xmlns="http://www.w3.org/2000/svg">
<path opacity="0.4" d="M16.19 2H7.81C4.17 2 2 4.17 2 7.81V16.18C2 19.83 4.17 22 7.81 22H16.18C19.82 22 21.99 19.83 21.99 16.19V7.81C22 4.17 19.83 2 16.19 2Z" />
<path d="M14.2602 12L12.7502 11.47V8.08H13.1102C13.9202 8.08 14.5802 8.79 14.5802 9.66C14.5802 10.07 14.9202 10.41 15.3302 10.41C15.7402 10.41 16.0802 10.07 16.0802 9.66C16.0802 7.96 14.7502 6.58 13.1102 6.58H12.7502V6C12.7502 5.59 12.4102 5.25 12.0002 5.25C11.5902 5.25 11.2502 5.59 11.2502 6V6.58H10.6002C9.12016 6.58 7.91016 7.83 7.91016 9.36C7.91016 11.15 8.95016 11.72 9.74016 12L11.2502 12.53V15.91H10.8902C10.0802 15.91 9.42016 15.2 9.42016 14.33C9.42016 13.92 9.08016 13.58 8.67016 13.58C8.26016 13.58 7.92016 13.92 7.92016 14.33C7.92016 16.03 9.25016 17.41 10.8902 17.41H11.2502V18C11.2502 18.41 11.5902 18.75 12.0002 18.75C12.4102 18.75 12.7502 18.41 12.7502 18V17.42H13.4002C14.8802 17.42 16.0902 16.17 16.0902 14.64C16.0802 12.84 15.0402 12.27 14.2602 12ZM10.2402 10.59C9.73016 10.41 9.42016 10.24 9.42016 9.37C9.42016 8.66 9.95016 8.09 10.6102 8.09H11.2602V10.95L10.2402 10.59ZM13.4002 15.92H12.7502V13.06L13.7602 13.41C14.2702 13.59 14.5802 13.76 14.5802 14.63C14.5802 15.34 14.0502 15.92 13.4002 15.92Z" />
</svg>

<?xml version="1.0" encoding="UTF-8"?>
<svg width="24" height="24" viewBox="0 0 24 24" xmlns="http://www.w3.org/2000/svg">
 <path d="M16.19 2H7.81C4.17 2 2 4.17 2 7.81V16.18C2 19.83 4.17 22 7.81 22H16.18C19.82 22 21.99 19.83 21.99 16.19V7.81C22 4.17 19.83 2 16.19 2Z" opacity=".4"/>
 <path d="m14.26 12-1.51-0.53v-3.39h0.36c0.81 0 1.47 0.71 1.47 1.58 0 0.41 0.34 0.75 0.75 0.75s0.75-0.34 0.75-0.75c0-1.7-1.33-3.08-2.97-3.08h-0.36v-0.58c0-0.41-0.34-0.75-0.75-0.75s-0.75 0.34-0.75 0.75v0.58h-0.65c-1.48 0-2.69 1.25-2.69 2.78 0 1.79 1.04 2.36 1.83 2.64l1.51 0.53v3.38h-0.36c-0.81 0-1.47-0.71-1.47-1.58 0-0.41-0.34-0.75-0.75-0.75s-0.75 0.34-0.75 0.75c0 1.7 1.33 3.08 2.97 3.08h0.36v0.59c0 0.41 0.34 0.75 0.75 0.75s0.75-0.34 0.75-0.75v-0.58h0.65c1.48 0 2.69-1.25 2.69-2.78-0.01-1.8-1.05-2.37-1.83-2.64zm-4.02-1.41c-0.51004-0.18-0.82004-0.35-0.82004-1.22 0-0.71 0.53-1.28 1.19-1.28h0.65v2.86l-1.02-0.36zm3.16 5.33h-0.65v-2.86l1.01 0.35c0.51 0.18 0.82 0.35 0.82 1.22 0 0.71-0.53 1.29-1.18 1.29z"/>
</svg>
